X:1
T:the Assembly Waltz  [Eb]
T:the Assembly Waltz  [Eb]
T:Johann Nepomuk Hummel (1778-1837)
C:Johann Nepomuk Hummel (1778-1837)
L:1/8
M:3/4
K:Eb
V:1 treble 
V:1
"A" x6 | EF |"Eb" (G^F G2) (AG |"Bb7" F=E F2) (=AB) |"Bb7" (cB) (BA) (AF) | %5
"Eb" (cB) (BG) (GE)"Eb" (G^F G2) (AG |"Bb7" F=E F2) (=AB) |"Bb7" (cB) (BA) (AF) |"Eb" E4 :| %9
"B" x6 |: _DD |"Bbm" _D2 .[Bfb]2 .[=Bf=b]2 |"C" [c=ec']4 _CC |"Abm" _C2 .[Aea]2 .[=Ae=a]2 | %14
"Bb" [Bdb]4 (=ab) |"Bb7" c'2 (bd bd) |"Eb" a2 (gB gB) |"Bb7" g2 (fA fA) |"Eb" f2 (eG eG) | %19
"Bb7" c'2 (bd bd) |"Eb" a2 (gB gB) |"Bb7" g2 (fA fA) |"Eb" e4!fine! :|"C" x6 |: e2 | %25
"Ab" e2 (c_d ef) |"Ab" e2 (ca ec') |"Eb7" c'2 (b_d bd) |"Ab" b2 (ac ac) |"Ab" e2 (c_d ef) | %30
"Ab" e2 (ca ec') |"Eb7" c'2 (b_d bd) |"Ab" [ca]2 z2!D.C.! :| %33

